public/socials/instagram.svg

<svg width="30" height="30" viewBox="0 0 30 30" fill="none" xmlns="http://www.w3.org/2000/svg">
<g id="bi:instagram" clip-path="url(#clip0_200_608)">
<path id="Vector" d="M15 0C10.9294 0 10.4175 0.01875 8.81812 0.09C7.21875 0.165 6.12937 0.41625 5.175 0.7875C4.17393 1.16404 3.26717 1.75467 2.51813 2.51813C1.75514 3.26756 1.16458 4.1742 0.7875 5.175C0.41625 6.1275 0.163125 7.21875 0.09 8.8125C0.01875 10.4156 0 10.9256 0 15.0019C0 19.0744 0.01875 19.5844 0.09 21.1838C0.165 22.7812 0.41625 23.8706 0.7875 24.825C1.17188 25.8112 1.68375 26.6475 2.51813 27.4819C3.35063 28.3162 4.18687 28.83 5.17313 29.2125C6.12937 29.5837 7.21688 29.8369 8.81437 29.91C10.4156 29.9812 10.9256 30 15 30C19.0744 30 19.5825 29.9812 21.1838 29.91C22.7794 29.835 23.8725 29.5837 24.8269 29.2125C25.8273 28.8358 26.7334 28.2451 27.4819 27.4819C28.3162 26.6475 28.8281 25.8112 29.2125 24.825C29.5819 23.8706 29.835 22.7812 29.91 21.1838C29.9812 19.5844 30 19.0744 30 15C30 10.9256 29.9812 10.4156 29.91 8.81437C29.835 7.21875 29.5819 6.1275 29.2125 5.175C28.8355 4.17417 28.2449 3.26752 27.4819 2.51813C26.7331 1.75439 25.8262 1.16371 24.825 0.7875C23.8687 0.41625 22.7775 0.163125 21.1819 0.09C19.5806 0.01875 19.0725 0 14.9963 0H15.0019H15ZM13.6556 2.70375H15.0019C19.0069 2.70375 19.4812 2.71688 21.0619 2.79C22.5244 2.85563 23.3194 3.10125 23.8481 3.30562C24.5475 3.5775 25.0481 3.90375 25.5731 4.42875C26.0981 4.95375 26.4225 5.4525 26.6944 6.15375C26.9006 6.68062 27.1444 7.47563 27.21 8.93813C27.2831 10.5188 27.2981 10.9931 27.2981 14.9963C27.2981 18.9994 27.2831 19.4756 27.21 21.0562C27.1444 22.5187 26.8988 23.3119 26.6944 23.8406C26.4539 24.4919 26.07 25.0808 25.5712 25.5637C25.0462 26.0887 24.5475 26.4131 23.8463 26.685C23.3213 26.8913 22.5262 27.135 21.0619 27.2025C19.4812 27.2738 19.0069 27.2906 15.0019 27.2906C10.9969 27.2906 10.5206 27.2738 8.94 27.2025C7.4775 27.135 6.68437 26.8913 6.15562 26.685C5.50406 26.4449 4.91461 26.0617 4.43062 25.5637C3.93141 25.0801 3.54698 24.4906 3.30562 23.8387C3.10125 23.3119 2.85563 22.5169 2.79 21.0544C2.71875 19.4738 2.70375 18.9994 2.70375 14.9925C2.70375 10.9875 2.71875 10.515 2.79 8.93437C2.8575 7.47187 3.10125 6.67688 3.3075 6.14813C3.57938 5.44875 3.90562 4.94812 4.43062 4.42312C4.95563 3.89812 5.45437 3.57375 6.15562 3.30188C6.68437 3.09563 7.4775 2.85188 8.94 2.78437C10.3238 2.72062 10.86 2.70188 13.6556 2.7V2.70375ZM23.0081 5.19375C22.7717 5.19375 22.5377 5.24031 22.3193 5.33077C22.1009 5.42123 21.9025 5.55381 21.7353 5.72096C21.5682 5.8881 21.4356 6.08653 21.3451 6.30492C21.2547 6.52331 21.2081 6.75737 21.2081 6.99375C21.2081 7.23013 21.2547 7.46419 21.3451 7.68258C21.4356 7.90097 21.5682 8.0994 21.7353 8.26654C21.9025 8.43369 22.1009 8.56627 22.3193 8.65673C22.5377 8.74719 22.7717 8.79375 23.0081 8.79375C23.4855 8.79375 23.9434 8.60411 24.2809 8.26654C24.6185 7.92898 24.8081 7.47114 24.8081 6.99375C24.8081 6.51636 24.6185 6.05852 24.2809 5.72096C23.9434 5.38339 23.4855 5.19375 23.0081 5.19375ZM15.0019 7.2975C13.9801 7.28156 12.9654 7.46904 12.0168 7.84901C11.0682 8.22899 10.2047 8.79388 9.47653 9.51079C8.74835 10.2277 8.17006 11.0823 7.77533 12.0249C7.3806 12.9674 7.17731 13.9791 7.17731 15.0009C7.17731 16.0228 7.3806 17.0345 7.77533 17.977C8.17006 18.9196 8.74835 19.7742 9.47653 20.4911C10.2047 21.208 11.0682 21.7729 12.0168 22.1529C12.9654 22.5328 13.9801 22.7203 15.0019 22.7044C17.0241 22.6728 18.9529 21.8473 20.3718 20.4061C21.7908 18.9649 22.5861 17.0234 22.5861 15.0009C22.5861 12.9784 21.7908 11.037 20.3718 9.59578C18.9529 8.15454 17.0241 7.32905 15.0019 7.2975ZM15.0019 9.99938C16.3281 9.99938 17.6001 10.5262 18.5379 11.464C19.4757 12.4018 20.0025 13.6738 20.0025 15C20.0025 16.3262 19.4757 17.5982 18.5379 18.536C17.6001 19.4738 16.3281 20.0006 15.0019 20.0006C13.6756 20.0006 12.4037 19.4738 11.4659 18.536C10.5281 17.5982 10.0013 16.3262 10.0013 15C10.0013 13.6738 10.5281 12.4018 11.4659 11.464C12.4037 10.5262 13.6756 9.99938 15.0019 9.99938Z" fill="#232524"/>
</g>
<defs>
<clipPath id="clip0_200_608">
<rect width="30" height="30" fill="white"/>
</clipPath>
</defs>
</svg>

<svg width="30" height="30" fill="none" xmlns="http://www.w3.org/2000/svg"><g clip-path="url(#a)"><path d="M15 0c-4.07 0-4.582.019-6.182.09-1.6.075-2.689.326-3.643.698a7.344 7.344 0 0 0-2.657 1.73 7.363 7.363 0 0 0-1.73 2.657C.416 6.128.163 7.219.09 8.813.019 10.415 0 10.925 0 15.002c0 4.072.019 4.582.09 6.182.075 1.597.326 2.687.698 3.641a7.368 7.368 0 0 0 1.73 2.657 7.32 7.32 0 0 0 2.655 1.73c.956.372 2.044.625 3.641.698 1.602.071 2.112.09 6.186.09s4.582-.019 6.184-.09c1.595-.075 2.688-.326 3.643-.698 1-.376 1.906-.967 2.655-1.73a7.369 7.369 0 0 0 1.73-2.657c.37-.954.623-2.044.698-3.641.071-1.6.09-2.11.09-6.184s-.019-4.584-.09-6.186c-.075-1.595-.328-2.686-.698-3.639a7.361 7.361 0 0 0-1.73-2.657 7.333 7.333 0 0 0-2.657-1.73C23.869.416 22.778.163 21.182.09 19.58.019 19.072 0 14.996 0h.006H15zm-1.344 2.704h1.346c4.005 0 4.48.013 6.06.086 1.462.066 2.257.311 2.786.516.7.272 1.2.598 1.725 1.123.525.525.85 1.023 1.121 1.725.207.527.45 1.322.516 2.784.073 1.58.088 2.055.088 6.058s-.015 4.48-.088 6.06c-.066 1.463-.311 2.256-.516 2.785a4.631 4.631 0 0 1-1.123 1.723 4.635 4.635 0 0 1-1.725 1.121c-.525.206-1.32.45-2.784.518-1.58.07-2.055.088-6.06.088-4.005 0-4.481-.017-6.062-.088-1.462-.068-2.256-.312-2.784-.518a4.645 4.645 0 0 1-1.725-1.121 4.65 4.65 0 0 1-1.125-1.725c-.205-.527-.45-1.322-.516-2.785-.071-1.58-.086-2.055-.086-6.061 0-4.005.015-4.478.086-6.059.067-1.462.311-2.257.518-2.786.271-.7.598-1.2 1.123-1.725a4.634 4.634 0 0 1 1.725-1.121c.528-.206 1.322-.45 2.784-.518 1.384-.063 1.92-.082 4.716-.084v.004zm9.352 2.49a1.8 1.8 0 1 0 0 3.6 1.8 1.8 0 0 0 0-3.6zm-8.006 2.104a7.705 7.705 0 1 0-.24 15.407 7.705 7.705 0 0 0 .24-15.407zm0 2.701a5 5 0 1 1 0 10.002 5 5 0 0 1 0-10.002z" fill="#232524"/></g><defs><clipPath id="a"><path fill="#fff" d="M0 0h30v30H0z"/></clipPath></defs></svg>
